X:1
T:Immensa fiamma
T:Immensa fiamma
T:Filippo Vitale
C:Filippo Vitale
%%score 1 { 2 | 3 }
L:1/8
Q:1/4=120
M:4/4
K:F
V:1 bass nm="Bass" snm="B"
V:2 treble nm="MusicXML Part"
V:3 bass 
V:1
 z2 G,2 G,2 G,2 | G,<^F, G,/A,/G, A,/B,/A,/A,/ A,/A,/A,/G,/ | G,6 G,G, | F,3 E, D,4 | D,4 z2 F,2 | %5
w: Im- men- sa|fiam- * * * * * * * * * * * *|ma di pu-|di- co'a- mo-|re trag-|
 F,G,A,B, C2 G,2 | A,/G,/F,/E,/ F,/E,/D,/E,/ F,/G,/F,/G,/ A,/B,/A,/B,/ | C2 F,/G,/A,/G,/ G,4 | %8
w: ge da bei vo- str'oc- ch'il|pet- * * * * * * * * * * * * * * *|* to _ _ _ mi-|
 F,4 A,2 G,>F, | F,3 E, E,4- | E,2 C,D,/E,/ F,/G,/A,/B,/ C2- | CC =B,2 C4 | C4 z2 G,2- | %13
w: o che quel che|splen- de'in voi|_ rag- * * * * * * *|* gio di Di-|o non|
 G,2 F,4 E,2 | D,C,D,E, F,G, A,/G,/TG,/F,/ | G,4- G,E,E,E, | E,4 D,4 | z2 D,2 E,4 | %18
w: _ fia ch'ac-|cen- * * * * * * * da in|me _ no- vel- lo'ar-|do- re,|non fia|
 ^F,G,A,F, G,F,E,D, | E,D, E,F, G,A, B,C | D/C/B,/A,/ B,/A,/G,/F,/ G,/D,/E,/F,/ G,F,/E,/ | %21
w: ch'ac- * * * cen- * da in|me _ no- * vel- * lo'ar- *|do- * * * * * * * * * * * * * *|
 D,2 G,,/A,,/B,,/C,/ D,4 | G,,8 ||"^Seconda Parte" G,2 G,2 G,2 G,A, | B,4- B,G,F,E, | D,4 D,4 | %26
w: |re.|Bra- mo quel che bra-|mar _ con- ce- de'ho-|no- re|
 z2 F,2 F,G,A,B, | C2 G,2 A,/G,/A,/B,/ A,2 | F,G, A,/G,/A,/F,/ G,4 | F,4 A,2 C2- | C2 =B,2 C4 | %31
w: da voi s'a- mor vi|do- no'a- mor _ _ _ _|de- * * * * * si-|o se vi-|* vo'in voi|
 z G,G,A, B,/A,/B,/C/ D2- | D2 G,/F,/E,/D,/ E,4 | E,2 G,4 F,2 | E,2 D,C, D,/C,/D,/E,/ D,2 | %35
w: non is- de- gna- * * * *|* te _ _ _ ch'i-|o- ha- bia|po- co ri- cet- * * * *|
 A,/G,/A,/B,/ C3 G, G,2- | G,2 E,2 E,4 | D,8 | D,4 E,4 | ^F,2 F,F, G,2 D,2 | %40
w: * * * * * to'al vo-|* stro co-|re,|Ha- bia|po- co ri- cet- to'al|
 E,2 C,2 D,E,/F,/ G,/D,/E,/F,/ | G,/F,/G,/A,/ G,/A,/G,/A,/ B,/C/B,/C/ D/A,/B,/C/ | %42
w: vo- stro co- * * * * * *||
 D/C/B,/A,/ B,/F,/G,/D,/ B,,/C,/D,/B,,/ G,,/A,,/B,,/G,,/ | D,4 D,,4 | G,,8 || %45
w: ||re.|
"^Terza Parte" G,2 G,G, G,4- | G,2 B,2 A,G,F,E, | F,4 D,4 | z2 F,2 A,4 | A,4 z2 A,2 | C4 C4 | %51
w: Cio ch'in me for-|* s'e di vol- ga- re'af-|fet- to|fug- gi-|te o-|dia- te-|
 z G,G,G, A,4 | F,/G,/A,/B,/ C<B, G,4 | F,4 A,2 G,2 | F,2 F,E, E,D,E,F, | %55
w: o- net- to cor|non _ _ _ _ _ chie-|de quel che|so- lo'e d'a- mor _ _ _|
 G,A, B,<A, B,/A,/B,/C/ D2- | D2 E,E, E,4 | D,4 z2 A,2- | A,2 E,2 ^F,3 E,/F,/ | %59
w: no- * * * * * * * *|* ta'e di- fet-|to, quel|_ che so- lo'e a-|
"^-natural" G,F,E,D, E,<D, E,/D,/E,/F,/ | G,/F,/G,/A,/ B,/C/D/B,/ C/A,/B,/F,/ G,/D,/E,/F,/ | %61
w: mor _ _ _ no- * * * * *||
"^-natural" G,/F,/G,/A,/ G,A,/B,/ A,B,/C/ B,C/D/ | CD/_E/ DB,/C/ D/C/B,/A,/ G,F,/E,/ | %63
w: ||
 D,B,,/C,/ D,/C,/B,,/A,,/ G,,3 F,,/E,,/ | D,,2 C,,C,, D,,4 | G,,8 || %66
w: |* to'e dif- fet-|to.|
"^Quarta Parte" G,2 G,2 G,2 G,A, | B,4 G,2 D,E, | F,4 F,4 | z2 A,A, A,2 A,B, | C3 G, A,2 F,2 | %71
w: Ma s'u- gua- le'al o-|prar va la mer-|ce- de|se d'a- mor e di|fe- de'ho col- mo'il|
 G,4 F,4 | z2 CC C2 =B,B, | C6 G,2 | B,6 F,2 | E,4 D,4 | D,4 E,4 | ^F,2 F,F, G,2 D,2 | %78
w: pet- to|mer- ta fe- de e'a-|mor,- a-|mor e|fe- de,|mer- ta|fe- de e'a- mor, a-|
 E,/D,/E,/F,/ G,/F,/G,/A,/ B,/A,/B,/C/ D/B,/G,/A,/ | %79
w: mor _ _ _ e _ _ _ fe- * * * * * * *|
 B,/A,/G,/F,/ G,/D,/B,,/C,/ D,/C,/B,,/A,,/ B,,A,,/G,,/ | ^F,,2 G,,/A,,/B,,/C,/ D,2 D,,2 | G,,8 |] %82
w: ||de.|
V:2
 [DB]8 | [DG]8 | [DGB]8 | [FB]4 [FA]4 | [FA]8 | [FAd]4 [Ec]4 | [FAc]8 | [FA]4 F2 E2 | [FAc]4 c4 | %9
 [Gc]2 =B2 [Gc]4 | [EGc]8 | [Gd]4 [Gc]4 | [Ec]4 [EGc]4 | B4 [Fc]2 [Ec]2 | [FBd]4 [FAc]4 | %15
 [Ec]4 G2 [EB]2 | [Ad]2 [EA^c]2 [^FAd]4 | [DFA]4 [EA]4 | [D^FA]4 [DG]4 | [Gc]4 [DGd]4 | [DGB]8 | %21
 [DGB]4 [D^FA]4 | [DG=B]8 || [DB]8 | [DG]8 | [DFA]8 | [DFA]8 | [EG]4 [CA]4 | [Fc]4 [Fc]2 [EG]2 | %29
 [Ac]4 [Fc]2 [Gc]2 | G4 [EG]4 | [Ec]4 [DB]4 | [Gd]4 [Gc]4 | [Gc]4 A4 | [EAc]4 [DFd]4 | %35
 [FAc]4 [EGe]4 | [Gd]2 [GB]2 [Ad]2 [E^c]2 | [^FAd]8 | [FA]4 [EA]4 | [DA]4 [DG]4 | [EG]4 [DB]4 | %41
 [DB]8 | [DGB]8 | [^FA]2 G4 [Fd]2 | [DG=B]8 || [DB]8 | [DG]8 | [FA]8 | [DA]8 | [FA]8 | [EG]8 | %51
 [Gc]4 [Ac]4 | [FAc]4 F2 E2 | [FA]4 [Fc]2 [Gc]2 | [FAd]4 [Gc]4 | [DB]8 | [EA]2 A/G/A/=B/ [A^c]4 | %57
 [^FAd]4 [=FA]4 | [EA]4 [DA]4 | [DG]4 [Gc]4 | [DB]8 | [DG]8 | [DG]8 | [GB]8 | %64
 [FA]2 [EG]2 [DA]2 [^Fd]2 | [DG=B]8 || [DB]8 | [DG]8 | [DA]8 | [DF]8 | [EG]4 [Fc]4 | F2 E2 [FA]4 | %72
 [FAc]2 [Gc]2 A2 GF | [EG]8 | [DG]8 | [E^c]4 [^FA]4 | [^FA]4 [EA]4 | [DA]4 [DG]4 | [EGc]4 [DGB]4 | %79
 [DGB]8 | [DA]4 G/A/B/c/ [^FAd]2 | [DG=B]8 |] %82
V:3
 G,,8 | G,,8 | G,,8 | G,,4 D,4 | D,8 | D,4 C,4 | F,,4 F,,4 | F,,4 C,4 |"^4   3" F,,4 F,2 E,2 | %9
"^7 6 -natural" D,4 C,4 | C,8 | G,,4 C,4 | C,4 C,4 | D,4 A,,4 | B,,4 F,,4 |"^b" C,4 G,,4 | %16
 A,,4 D,4 |"^-natural" D,4 ^C,4 | D,4 =B,,4 | C,4 G,,4 | G,,8 |"^#" G,,4 D,,4 | G,,8 || G,,8 | %24
 G,,8 |"^-natural" D,8 | D,8 | C,4 F,,4- |"^4  3" F,,4 C,4 | F,,4 F,2 E,2 | D,4 C,4 | %31
"^b" C,4 G,,4- | G,,4 C,4 | C,4 D,4 | A,,4 B,,4 | F,,4 C,4 |"^4   #""^b" G,,4 A,,4 |"^#" D,8 | %38
 D,4 ^C,4 | D,4 =B,,4 | C,4 G,,4 | G,,8 | G,,8 |"^#" D,,8 | G,,8 || G,,8 | G,,8 | D,8 | D,8 | D,8 | %50
 C,8 | C,4 F,,4 |"^4 3" F,,4 C,4 | F,,4 F,2 E,2 | D,4 C,4 | G,,8 |"^4               #" A,,8 | %57
 D,4 D,4 | ^C,4 D,4 | =B,,4 C,4 | G,,8 | G,,8 | G,,8 | G,,8 | D,8 | G,,8 || G,,8 | G,,8 | D,8 | %69
 D,8 | C,4 F,,4 |"^4    3" C,4 F,,4 | F,2 E,2 D,4 | C,8 | G,,8 |"^#""^#" A,,4 D,4 | D,4 ^C,4 | %77
 D,4 =B,,4 | C,4 G,,4 | G,,8 | D,,8 | G,,8 |] %82

